assets/static/logos/Villarreal-white.svg

<svg width="500" height="500" viewBox="0 0 500 500" fill="none" xmlns="http://www.w3.org/2000/svg">
<path d="M341.884 107.749C318.227 97.9495 275.596 93.4326 249.99 93.4326C224.383 93.4326 191.167 95.4223 167.509 105.221C161.544 107.692 163.577 113.507 157.906 116.546C141.088 125.556 125.652 137.003 112.111 150.544C94.0047 168.65 79.6419 190.146 69.8427 213.803C60.0436 237.46 55 262.816 55 288.422C55 314.029 60.0436 339.384 69.8427 363.042C79.6419 386.699 94.0047 408.195 112.111 426.301C130.218 444.407 151.713 458.77 175.37 468.569C199.028 478.369 224.383 483.412 249.99 483.412C275.596 483.412 300.952 478.369 324.609 468.569C348.266 458.77 369.762 444.407 387.868 426.301C405.975 408.195 420.338 386.699 430.137 363.042C439.936 339.384 444.98 314.029 444.98 288.422C444.98 262.816 439.936 237.46 430.137 213.803C420.338 190.146 405.975 168.65 387.868 150.544C373.325 136.001 362.034 127.399 343.906 118.363M341.884 107.749C346.54 109.677 339.464 116.149 343.906 118.363M341.884 107.749L343.906 118.363" stroke="white" stroke-width="4"/>
<path d="M316.232 151.817L423.034 280.854L283.851 467.412C283.851 467.412 410.625 446.902 429.922 316.599C448.914 188.356 350.026 135.855 350.026 135.855L345.699 141.258L316.232 151.817Z" fill="white"/>
<path fill-rule="evenodd" clip-rule="evenodd" d="M413.69 281.255L249.913 500L86.2862 280.815L154.817 197.104L181.017 197.139L195.632 242.467L195.576 404.809L232.02 453.434L232.007 355.285L248.59 406.717L250.023 411.16L251.446 406.714L267.985 355.062L267.973 454.039L304.417 405.414L304.36 241.46L318.61 196.956L344.788 197.033L413.69 281.255ZM320.186 166.96L343.557 195.528L318.019 195.453L304.359 238.115L304.335 169.264L302.431 166.986L320.186 166.96ZM318.96 165.461L276.295 113.309L223.417 113.309L180.736 165.444L198.374 165.409L231.979 125.185L231.994 250.518L249.963 305.543L267.998 250.213L268.014 125.79L301.179 165.487L318.96 165.461ZM267.997 256.597L250.467 310.379L231.995 253.812L232.007 348.836L250.52 406.257L267.986 351.711L267.997 256.597ZM195.634 236.026L195.657 168.66L197.117 166.912L179.505 166.947L156.044 195.605L182.613 195.64L195.634 236.026ZM147.274 195.593L171 166.964L130.61 167.044L130.679 195.571L147.274 195.593ZM172.246 165.461L184.286 150.932L155.608 140.636L152.071 133.392C152.071 133.392 50.8155 188.26 69.8073 316.503C89.1041 446.806 215.879 467.316 215.879 467.316L76.6955 280.758L146.032 197.092L130.175 197.071L128.68 197.069L128.677 195.574L128.607 167.047L128.603 165.547L130.104 165.544L172.246 165.461ZM159.607 328.48L159.615 357.355L122.306 307.814L122.265 257.419L159.575 212.925L159.582 238.051C160.549 237.72 161.379 237.466 162.036 237.278C162.56 237.128 162.975 237.019 163.262 236.948C163.405 236.912 163.517 236.885 163.595 236.867L163.609 236.864L163.685 236.847L163.711 236.841L163.719 236.839L163.721 236.839C163.722 236.839 163.723 236.838 164.04 238.304L163.723 236.838L163.881 236.804L164.043 236.804L184.921 236.842L186.421 236.845L186.418 238.345L186.378 256.549L186.375 258.046L184.879 258.046L168.554 258.048L168.538 258.053C168.399 258.095 168.19 258.161 167.919 258.253C167.378 258.438 166.595 258.728 165.652 259.144C163.971 259.885 161.8 261.018 159.589 262.648L159.6 304.547C161.805 306.086 163.963 307.096 165.614 307.731C166.513 308.076 167.257 308.308 167.77 308.453C168.026 308.525 168.224 308.575 168.354 308.606L168.382 308.613L184.846 308.296L186.374 308.266L186.374 309.796L186.375 328.011L186.375 329.529L184.858 329.511L162.366 329.255L162.195 329.253L162.029 329.212L162.345 327.914L162.384 327.923L184.875 328.18L184.875 309.964L168.23 310.285L168.196 310.278C167.799 310.191 163.899 309.294 159.601 306.522L159.607 327.061C161.144 327.601 162.141 327.862 162.345 327.914C162.029 329.212 162.028 329.212 162.027 329.212L162.024 329.211L162.017 329.209L161.992 329.203C161.971 329.198 161.942 329.191 161.905 329.181C161.83 329.162 161.723 329.133 161.586 329.095C161.311 329.019 160.915 328.903 160.415 328.745C160.17 328.667 159.9 328.579 159.607 328.48ZM159.582 239.807L159.588 260.977C164.18 257.827 168.342 256.717 168.342 256.717L184.879 256.714L184.918 238.51L164.041 238.473C164.041 238.473 162.303 238.849 159.582 239.807ZM340.418 236.735L340.424 212.809L360.473 236.718L367.237 236.712L368.743 236.711L368.738 238.216L368.713 246.543L377.734 257.302L377.693 307.697L340.384 357.238L340.403 289.482L334.717 289.468L334.734 328.077L334.735 329.579L333.233 329.578L315.799 329.563L314.3 329.562L314.3 328.063L314.331 238.256L314.331 236.758L315.83 236.757L340.418 236.735ZM340.417 238.404L315.831 238.425L315.801 328.232L333.235 328.246L333.217 288.133L340.403 288.15L340.408 269.85L334.067 269.857L334.07 256.731L340.412 256.728L340.417 238.404ZM367.219 244.762L367.239 238.38L361.871 238.385L367.219 244.762ZM340.412 258.059L335.57 258.061L335.567 268.187L340.409 268.182L340.412 258.059Z" fill="white"/>
<path fill-rule="evenodd" clip-rule="evenodd" d="M249.865 115.765C310.22 115.579 340.596 134.241 340.596 134.241L351.507 109.285C351.507 109.285 315.806 91.7643 249.832 91.0906C184.231 90.4169 148.62 109.566 148.62 109.566L158.697 133.497C158.697 133.497 189.883 115.951 249.865 115.765ZM231.861 103.932L250.297 113.223L268.161 104.226L249.925 94.6239L231.861 103.932ZM189.381 109.764L176.956 122.24L157.779 120.058L170.867 107.523L189.381 109.764ZM323.845 122.351L311.42 109.875L329.934 107.634L343.023 120.168L323.845 122.351Z" fill="white"/>
<path fill-rule="evenodd" clip-rule="evenodd" d="M219.169 91.9185C241.385 88.6388 249.831 71.7475 249.831 71.7475C249.831 71.7475 261.263 90.418 281.765 92.7721C303.551 95.2736 312.424 83.9855 312.424 83.9855C312.424 83.9855 332.733 109.238 350.723 107.432C368.693 105.628 385.791 93.8804 385.791 93.8804L386.12 93.3696C386.232 93.5111 386.297 93.5866 386.297 93.5866L395.463 79.3295C395.463 79.3295 395.38 79.291 395.227 79.2278L410.908 54.8793C410.908 54.8793 406.781 48.1781 397.843 50.8171C387.884 53.7577 385.207 66.6417 385.207 66.6417C385.207 66.6417 372.094 55.491 360.868 66.3537C349.172 77.6718 364.459 89.5951 364.459 89.5951C364.459 89.5951 348.11 94.0955 336.776 87.4081C326.238 81.1903 325.074 65.8216 325.074 65.8216C325.074 65.8216 340.292 84.3134 350.267 68.2136C360.19 52.1976 339.1 44.7216 339.1 44.7216C339.1 44.7216 356.727 24.3472 336.492 15.7199C315.467 6.75596 314.7 35.5072 314.7 35.5072C314.7 35.5072 290.514 30.459 289.714 48.6992C288.832 68.8036 312.661 61.6154 312.661 61.6154C312.661 61.6154 304.955 80.2622 284.124 77.6497C263.336 75.0426 252.401 48.1897 252.401 48.1897C252.401 48.1897 272.046 68.092 281.031 48.7909C290.087 29.3371 262.77 26.1446 262.77 26.1446C262.77 26.1446 274.845 -0.0228742 250.291 1.50075e-05C226.395 0.0222912 236.964 26.6081 236.964 26.6081C236.964 26.6081 211.669 27.7111 218.63 47.9833C225.246 67.2544 247.195 48.2364 247.195 48.2364C247.195 48.2364 241.052 69.0709 218.899 76.9957C196.911 84.8616 187.411 62.0804 187.411 62.0804C187.411 62.0804 209.671 66.5312 210.181 49.4533C210.729 31.0746 185.172 33.9429 185.172 33.9429C185.172 33.9429 183.977 8.0456 163.657 15.9974C143.175 24.0123 160.432 44.1751 160.432 44.1751C160.432 44.1751 138.512 54.8364 150.391 69.0248C161.934 82.8114 174.613 65.8429 174.613 65.8429C174.613 65.8429 175.536 79.6276 163.461 87.2595C151.868 94.5868 135.613 89.3031 135.613 89.3031C135.613 89.3031 149.46 78.353 140.456 67.1584C131.482 56.0006 115.223 66.0997 115.223 66.0997C115.223 66.0997 111.111 54.1787 104.383 51.334C97.6546 48.4893 88.3096 54.7209 88.3096 54.7209L104.268 79.111C104.075 79.1896 103.969 79.2389 103.969 79.2389L113.134 93.496C113.134 93.496 113.248 93.3634 113.435 93.1205L113.821 93.7099C113.821 93.7099 128.35 105.779 149.077 107.103C169.79 108.426 187.004 84.1222 187.004 84.1222C187.004 84.1222 197.862 95.0639 219.169 91.9185ZM113.435 93.1205C114.616 91.5862 118.71 85.6501 115.426 80.9266C112.175 76.2504 105.731 78.517 104.268 79.111L113.435 93.1205ZM395.227 79.2278C393.901 78.6792 387.307 76.2687 384.006 81.0172C380.594 85.9241 385.145 92.1395 386.12 93.3696L395.227 79.2278ZM258.912 35.7949C259.384 34.6546 259.627 33.4325 259.627 32.1983C259.627 30.9641 259.384 29.7419 258.912 28.6016C258.44 27.4612 257.748 26.4251 256.875 25.5523C256.002 24.6795 254.966 23.9871 253.826 23.5148C252.686 23.0424 251.464 22.7993 250.23 22.7993C248.995 22.7993 247.773 23.0424 246.633 23.5148C245.493 23.9871 244.457 24.6795 243.584 25.5523C242.712 26.4251 242.019 27.4612 241.547 28.6016C241.075 29.7419 240.832 30.9641 240.833 32.1983C240.832 33.4325 241.075 34.6546 241.547 35.7949C242.019 36.9353 242.712 37.9714 243.584 38.8442C244.457 39.717 245.493 40.4094 246.633 40.8818C247.773 41.3541 248.995 41.5972 250.23 41.5972C251.464 41.5972 252.686 41.3541 253.826 40.8818C254.966 40.4094 256.002 39.717 256.875 38.8442C257.748 37.9714 258.44 36.9353 258.912 35.7949ZM334.853 44.5614C334.853 45.7956 334.611 47.0177 334.138 48.1581C333.666 49.2984 332.974 50.3345 332.102 51.2073C331.229 52.0802 330.193 52.7725 329.053 53.2449C327.912 53.7172 326.69 53.9604 325.456 53.9604C324.222 53.9604 323 53.7172 321.86 53.2449C320.719 52.7725 319.683 52.0802 318.811 51.2073C317.938 50.3345 317.246 49.2984 316.774 48.1581C316.302 47.0177 316.059 45.7956 316.059 44.5614C316.059 43.3272 316.302 42.105 316.774 40.9647C317.246 39.8244 317.938 38.7882 318.811 37.9154C319.683 37.0426 320.719 36.3502 321.86 35.8779C323 35.4055 324.222 35.1624 325.456 35.1624C326.69 35.1624 327.912 35.4055 329.053 35.8779C330.193 36.3502 331.229 37.0426 332.102 37.9154C332.974 38.7882 333.666 39.8244 334.138 40.9647C334.611 42.105 334.853 43.3272 334.853 44.5614ZM183.685 47.8948C184.157 46.7545 184.4 45.5323 184.399 44.2981C184.4 43.0639 184.157 41.8418 183.685 40.7014C183.212 39.5611 182.52 38.525 181.648 37.6522C180.775 36.7794 179.739 36.087 178.599 35.6146C177.459 35.1423 176.236 34.8991 175.002 34.8991C173.768 34.8991 172.546 35.1423 171.406 35.6146C170.265 36.087 169.229 36.7794 168.357 37.6522C167.484 38.525 166.792 39.5611 166.32 40.7014C165.848 41.8418 165.605 43.0639 165.605 44.2981C165.605 45.5323 165.848 46.7545 166.32 47.8948C166.792 49.0351 167.484 50.0713 168.357 50.9441C169.229 51.8169 170.265 52.5093 171.406 52.9816C172.546 53.454 173.768 53.6971 175.002 53.6971C176.236 53.6971 177.459 53.454 178.599 52.9816C179.739 52.5093 180.775 51.8169 181.648 50.9441C182.52 50.0713 183.212 49.0351 183.685 47.8948Z" fill="white"/>
<path d="M250.52 406.255L182.612 195.639L130.679 195.569L130.609 167.042L203.613 166.898L250.466 310.377L297.204 166.992L370.268 166.885L370.193 195.603L318.019 195.451L250.52 406.255Z" fill="white"/>
<path d="M168.342 256.715C168.342 256.715 147.204 262.353 147.649 284.263C148.093 306.167 168.229 310.283 168.229 310.283L184.874 309.962L184.874 328.178L162.383 327.921C162.383 327.921 127.133 319.345 127.074 282.796C127.016 246.483 164.04 238.471 164.04 238.471L184.918 238.508L184.878 256.712L168.342 256.715Z" fill="white"/>
<path d="M334.066 269.854L356.749 269.831L356.778 288.187L333.216 288.131L333.234 328.244L315.8 328.229L315.83 238.423L367.238 238.378L367.182 256.714L334.07 256.728L334.066 269.854Z" fill="white"/>
</svg>

<svg xmlns="http://www.w3.org/2000/svg" width="500" height="500" fill="none"><path stroke="#fff" stroke-width="4" d="M341.884 107.749c-23.657-9.8-66.288-14.316-91.894-14.316-25.607 0-58.823 1.99-82.481 11.788-5.965 2.471-3.932 8.286-9.603 11.325a194.98 194.98 0 0 0-88.063 97.257 194.99 194.99 0 1 0 318.025-63.259c-14.543-14.543-25.834-23.145-43.962-32.181m-2.022-10.614c4.656 1.928-2.42 8.4 2.022 10.614m-2.022-10.614 2.022 10.614"/><path fill="#fff" d="m316.232 151.817 106.802 129.037-139.183 186.558s126.774-20.51 146.071-150.813c18.992-128.243-79.896-180.744-79.896-180.744l-4.327 5.403-29.467 10.559Z"/><path fill="#fff" fill-rule="evenodd" d="M413.69 281.255 249.913 500 86.286 280.815l68.531-83.711 26.2.035 14.615 45.328-.056 162.342 36.444 48.625-.013-98.149 16.583 51.432 1.433 4.443 1.423-4.446 16.539-51.652-.012 98.977 36.444-48.625-.057-163.954 14.25-44.504 26.178.077 68.902 84.222ZM320.186 166.96l23.371 28.568-25.538-.075-13.66 42.662-.024-68.851-1.904-2.278 17.755-.026Zm-1.226-1.499-42.665-52.152h-52.878l-42.681 52.135 17.638-.035 33.605-40.224.015 125.333 17.969 55.025 18.035-55.33.016-124.423 33.165 39.697 17.781-.026Zm-50.963 91.136-17.53 53.782-18.472-56.567.012 95.024 18.513 57.421 17.466-54.546.011-95.114Zm-72.363-20.571.023-67.366 1.46-1.748-17.612.035-23.461 28.658 26.569.035 13.021 40.386Zm-48.36-40.433L171 166.964l-40.39.08.069 28.527 16.595.022Zm24.972-30.132 12.04-14.529-28.678-10.296-3.537-7.244S50.816 188.26 69.807 316.503C89.104 446.806 215.88 467.316 215.88 467.316L76.696 280.758l69.336-83.666-15.857-.021-1.495-.002-.003-1.495-.07-28.527-.004-1.5 1.501-.003 42.142-.083ZM159.607 328.48l.008 28.875-37.309-49.541-.041-50.395 37.31-44.494.007 25.126a50.523 50.523 0 0 1 2.454-.773 35.8 35.8 0 0 1 1.559-.411l.014-.003.076-.017.026-.006.008-.002h.002c.001 0 .002-.001.319 1.465l-.317-1.466.158-.034h.162l20.878.038 1.5.003-.003 1.5-.04 18.204-.003 1.497h-1.496l-16.325.002-.016.005c-.139.042-.348.108-.619.2-.541.185-1.324.475-2.267.891a32.193 32.193 0 0 0-6.063 3.504l.011 41.899a28.413 28.413 0 0 0 6.014 3.184c.899.345 1.643.577 2.156.722.256.072.454.122.584.153l.028.007 16.464-.317 1.528-.03v1.53l.001 18.215v1.518l-1.517-.018-22.492-.256-.171-.002-.166-.041.316-1.298.039.009 22.491.257v-18.216l-16.645.321-.034-.007c-.397-.087-4.297-.984-8.595-3.756l.006 20.539c1.537.54 2.534.801 2.738.853-.316 1.298-.317 1.298-.318 1.298l-.003-.001-.007-.002-.025-.006a34.477 34.477 0 0 1-1.577-.458 48.147 48.147 0 0 1-.808-.265Zm-.025-88.673.006 21.17c4.592-3.15 8.754-4.26 8.754-4.26l16.537-.003.039-18.204-20.877-.037s-1.738.376-4.459 1.334Zm180.836-3.072.006-23.926 20.049 23.909 6.764-.006 1.506-.001-.005 1.505-.025 8.327 9.021 10.759-.041 50.395-37.309 49.541.019-67.756-5.686-.014.017 38.609.001 1.502-1.502-.001-17.434-.015-1.499-.001v-1.499l.031-89.807v-1.498l1.499-.001 24.588-.022Zm-.001 1.669-24.586.021-.03 89.807 17.434.014-.018-40.113 7.186.017.005-18.3-6.341.007.003-13.126 6.342-.003.005-18.324Zm26.802 6.358.02-6.382-5.368.005 5.348 6.377Zm-26.807 13.297-4.842.002-.003 10.126 4.842-.005.003-10.123Z" clip-rule="evenodd"/><path fill="#fff" fill-rule="evenodd" d="M249.865 115.765c60.355-.186 90.731 18.476 90.731 18.476l10.911-24.956s-35.701-17.52-101.675-18.194c-65.601-.674-101.212 18.475-101.212 18.475l10.077 23.931s31.186-17.546 91.168-17.732Zm-18.004-11.833 18.436 9.291 17.864-8.997-18.236-9.602-18.064 9.308Zm-42.48 5.832-12.425 12.476-19.177-2.182 13.088-12.535 18.514 2.241Zm134.464 12.587-12.425-12.476 18.514-2.241 13.089 12.534-19.178 2.183Z" clip-rule="evenodd"/><path fill="#fff" fill-rule="evenodd" d="M219.169 91.918c22.216-3.28 30.662-20.17 30.662-20.17s11.432 18.67 31.934 21.024c21.786 2.502 30.659-8.787 30.659-8.787s20.309 25.253 38.299 23.447c17.97-1.804 35.068-13.552 35.068-13.552l.329-.51c.112.141.177.217.177.217l9.166-14.258s-.083-.038-.236-.101l15.681-24.349s-4.127-6.7-13.065-4.062c-9.959 2.94-12.636 15.825-12.636 15.825s-13.113-11.151-24.339-.288c-11.696 11.318 3.591 23.241 3.591 23.241s-16.349 4.5-27.683-2.187c-10.538-6.218-11.702-21.586-11.702-21.586s15.218 18.491 25.193 2.392C360.19 52.198 339.1 44.722 339.1 44.722s17.627-20.375-2.608-29.002C315.467 6.756 314.7 35.507 314.7 35.507S290.514 30.46 289.714 48.7c-.882 20.105 22.947 12.916 22.947 12.916s-7.706 18.647-28.537 16.035c-20.788-2.607-31.723-29.46-31.723-29.46s19.645 19.902 28.63.6c9.056-19.453-18.261-22.645-18.261-22.645S274.845-.023 250.291 0c-23.896.022-13.327 26.608-13.327 26.608s-25.295 1.103-18.334 21.375c6.616 19.271 28.565.253 28.565.253s-6.143 20.835-28.296 28.76c-21.988 7.866-31.488-14.916-31.488-14.916s22.26 4.451 22.77-12.627c.548-18.378-25.009-15.51-25.009-15.51s-1.195-25.897-21.515-17.946c-20.482 8.015-3.225 28.178-3.225 28.178s-21.92 10.661-10.041 24.85c11.543 13.786 24.222-3.182 24.222-3.182s.923 13.785-11.152 21.416c-11.593 7.328-27.848 2.044-27.848 2.044s13.847-10.95 4.843-22.145c-8.974-11.157-25.233-1.058-25.233-1.058s-4.112-11.921-10.84-14.766c-6.728-2.845-16.073 3.387-16.073 3.387l15.958 24.39a7.453 7.453 0 0 0-.299.128l9.165 14.257s.114-.133.301-.375l.386.589s14.529 12.069 35.256 13.393c20.713 1.323 37.927-22.98 37.927-22.98s10.858 10.94 32.165 7.795Zm-105.734 1.203c1.181-1.535 5.275-7.47 1.991-12.194-3.251-4.677-9.695-2.41-11.158-1.816l9.167 14.01Zm281.792-13.893c-1.326-.549-7.92-2.96-11.221 1.79-3.412 4.906 1.139 11.121 2.114 12.352l9.107-14.142ZM258.912 35.795a9.404 9.404 0 0 0-2.037-10.243 9.403 9.403 0 0 0-10.242-2.037 9.403 9.403 0 0 0-5.086 5.087 9.385 9.385 0 0 0-.714 3.596 9.384 9.384 0 0 0 2.751 6.646 9.405 9.405 0 0 0 6.646 2.753 9.395 9.395 0 0 0 8.682-5.802Zm75.941 8.766a9.386 9.386 0 0 1-2.751 6.646 9.403 9.403 0 0 1-6.646 2.753 9.396 9.396 0 0 1-9.397-9.399 9.405 9.405 0 0 1 2.752-6.646 9.382 9.382 0 0 1 6.645-2.753 9.402 9.402 0 0 1 6.646 2.753 9.403 9.403 0 0 1 2.751 6.646Zm-151.168 3.334a9.385 9.385 0 0 0 .714-3.597 9.385 9.385 0 0 0-2.751-6.646 9.405 9.405 0 0 0-6.646-2.753 9.396 9.396 0 0 0-9.397 9.4 9.405 9.405 0 0 0 2.752 6.645 9.382 9.382 0 0 0 6.645 2.753 9.399 9.399 0 0 0 8.683-5.802Z" clip-rule="evenodd"/><path fill="#fff" d="m250.52 406.255-67.908-210.616-51.933-.07-.07-28.527 73.004-.144 46.853 143.479 46.738-143.385 73.064-.107-.075 28.718-52.174-.152-67.499 210.804Z"/><path fill="#fff" d="M168.342 256.715s-21.138 5.638-20.693 27.548c.444 21.904 20.58 26.02 20.58 26.02l16.645-.321v18.216l-22.491-.257s-35.25-8.576-35.309-45.125c-.058-36.313 36.966-44.325 36.966-44.325l20.878.037-.04 18.204-16.536.003ZM334.066 269.854l22.683-.023.029 18.356-23.562-.056.018 40.113-17.434-.015.03-89.806 51.408-.045-.056 18.336-33.112.014-.004 13.126Z"/></svg>
